!!!OTL: Soldatentreue. /  Maennergesang.
!!!OTL-incipit: MAEDCHEN MIT DEM GRUENEN KRANZE
!!!COM: F. Danzi
!!!ARE: Europa, Mitteleuropa, Deutschland
!!!SCT: F0791
!!!TXL: @@DE
!!!YEM: Copyright 1995, estate of Helmut Schaffrath.
**kern	**text
*ICvox	*
*clefG2	*
*M2/4	*
*k[f#c#g#d#]	*
*E:	*
=1	=1
!LO:TX:a:t=Allegretto.	!
{4.b/	1._Mädchen
8ee/	.
=2	=2
8ff#	mit
8ee	dem
8dd#	grü-
8ee	-nen
=3	=3
(>4.ff#/	Kran-
8gg#/)	.
=4	=4
4ee/	-ʒe,
4r}	.
=5	=5
{4.b/	fol-
8ee/	-ge
=6	=6
8ff#	mir
8ee	ʒum
8dd#	ra-
8ee	-ſchen
=7	=7
(>4.ff#/	Tan-
8gg#/)	.
=8	=8
4ee/	-ʒe!
4r}	.
=9	=9
{8ee	komm,
8ee	und
8dd#	laß
8ee	in
=10	=10
4ff#	bun-
4gg#	-ten
=11	=11
(>2ff#	Reih'n
=12	=12
4dd#)	.
4r}	.
=13	=13
{8ee	ſcherʒend
8ee	.
8ff#	uns
8ee	des
=14	=14
4dd#	Le-
4cc#	-bens
=15	=15
[>2b/	freun!
=16	=16
4b/]	.
4r}	.
=17	=17
{8ff#	Lei-
8ff#	-der
8ff#	fol-
8ff#	-gen
=18	=18
4ff#	bald
4gg#	die
=19	=19
2aa	Sor-
=20	=20
4ee/	-gen,
4r}	.
=21	=21
{8ee	wie
8ee	auf
8ee	heu-
8ee	-te
=22	=22
4ee	folgt
4ff#	das
=23	=23
2gg#	Mor-
=24	=24
4dd#/	-gen.
4r}	.
=25	=25
{4ee	Nur
4ee	al-
=26	=26
4.ff#	-lein
8b	Sol-
=27	=27
4ee	-da-
4ee	-ten-
=28	=28
4ff#	-treu
4r}	.
=29	=29
{4ee	iſt
8ff#/L	mit
8gg#J	.
=30	=30
4aa	je-
4gg#	-dem
=31	=31
4ff#	Mor-
4dd#	-gen
=32	=32
4ee	neu.
4r}	.
=33	=33
{4ee	Nur
4ee	al-
=34	=34
4.ff#	-lein
8b	Sol-
=35	=35
4ee	-da-
4ee	-ten-
=36	=36
4ff#	-treu
4r}	.
=37	=37
{4ee	iſt
8ff#/L	mit
8gg#J	.
=38	=38
4aa	je-
4gg#	-dem
=39	=39
4ff#	Morgen
4dd#	.
=40	=40
4ee	neu.
4r}	.
==	==
!!!AGN: Geselligkeits -, Tanz -, Soldaten - Lied
!!!ONB: ESAC (Essen Associative Code) Database: FINK
!!!AMT: simple duple
!!!AIN: vox
!!!EED: Helmut Schaffrath
!!!EEV: 1.0
!!!RDF**kern: > = above
!!!GTL: Liedertafel- und Gesellschaftslieder
!!Text: Volksthuemlich
!!!source: Musikalischer Hausschatz der Deutschen. Eine Sammlung von über 1000 Liedern und Gesängen mit Singstimmen und Klavierbegleitung. Leipzig, Litterarisches Verlags-Haus.
!!!page: 546
!!!URL-scan: https://www.digitale-sammlungen.de/en/view/bsb11144622?page=497
!!!ENC: Anna Maria Matuszewska
!!!EEV: 2024/08/06
*-	*-